X:1
T:The Drunkard's Dream (2)
M:3/4
L:1/8
K:F
 CFG| A3 Bc c| A4- AF| A3 Bd c| G3 cf e| B3| Bdc| F4- FA| G3 AB E|\
 F3||
